public/images/mappy_logo.svg

<svg width="214" height="208" viewBox="0 0 214 208" fill="none" xmlns="http://www.w3.org/2000/svg">
<ellipse cx="91" cy="200" rx="40" ry="8" fill="#A8D1E7"/>
<path d="M213.75 71.2781V71.8796C213.148 73.9849 211.643 75.3383 209.686 76.2405C206.976 77.5939 204.267 78.9473 201.407 80.1503C200.654 80.4511 200.353 81.0526 200.052 81.8045C197.794 88.1202 195.687 94.436 193.429 100.752C193.128 101.654 192.526 102.256 191.622 102.707C190.569 103.158 189.515 103.609 188.16 104.21C188.762 97.8947 189.515 91.8796 190.117 85.7142C189.665 86.015 189.214 86.1654 188.913 86.3157C184.397 88.421 179.731 89.9248 174.763 90.3759C173.258 90.5263 171.903 90.2255 170.699 89.0225C168.441 86.7669 166.183 84.5112 163.925 82.1052C165.129 81.203 166.183 80.7518 167.538 81.3533C169.796 82.2556 172.054 82.8571 174.312 83.609C174.914 83.9097 175.516 83.7593 176.118 83.4586C179.279 81.9548 182.44 80.4511 185.601 78.9473C182.741 77.4436 176.57 74.1353 174.613 72.7819C174.613 72.6315 174.613 72.4811 174.613 72.3308C175.967 71.7293 177.473 70.9774 178.827 70.3759C178.978 70.2255 179.279 70.3759 179.58 70.3759C183.042 71.5789 189.665 73.6842 193.429 75.0375C196.891 73.3834 200.202 71.7293 203.665 70.0751C206.073 68.8721 208.482 68.8721 211.04 69.3233C212.245 69.7744 213.148 70.2255 213.75 71.2781Z" fill="#24315E"/>
<circle cx="90.5" cy="71.5" r="37.5" fill="white"/>
<path d="M90.618 0C50.5775 0 18.0634 32.4812 18.0634 72.4812C18.0634 74.7368 18.2139 76.9925 18.515 79.3985C20.6224 84.0601 23.7835 88.2707 27.6972 92.0301C31.1593 95.4887 35.0731 98.1955 39.2879 100.601C52.6849 107.97 67.2861 110.827 82.4894 111.278C90.0158 111.429 97.3917 110.977 104.768 109.925C111.692 108.872 118.616 107.368 125.239 105.263C125.39 105.263 125.54 105.113 125.842 105.113C129.755 104.06 133.82 102.857 137.583 101.353C137.733 101.353 138.034 101.353 138.185 101.203C145.711 98.6466 153.087 95.4887 160.312 92.1804C162.119 85.2631 163.173 78.6466 163.173 72.3308C163.173 32.4812 130.658 0 90.618 0ZM90.618 108.872C70.4472 108.872 54.1901 92.4812 54.1901 72.4812C54.1901 52.3308 70.5977 36.0902 90.618 36.0902C110.789 36.0902 127.046 52.4812 127.046 72.4812C127.046 92.4812 110.789 108.872 90.618 108.872ZM142.099 114.135C141.798 114.286 141.496 114.586 141.195 114.737C141.045 114.887 140.744 114.887 140.593 115.038C131.562 119.549 122.379 123.308 112.746 126.316C103.563 129.173 94.2306 131.278 84.7474 132.481C76.4683 133.383 68.1893 133.684 59.9102 133.083C51.9322 132.481 43.9542 131.128 36.4278 128.571C55.6954 164.06 83.9947 195.789 85.8011 197.895C88.36 200.752 92.8759 200.752 95.5854 197.895C97.6928 195.489 138.486 149.774 155.646 106.165C151.281 109.023 146.765 111.729 142.099 114.135Z" fill="#F76D6D"/>
<path d="M165.732 92.7818C165.882 92.7818 165.882 92.7818 166.033 92.6315C166.484 92.4811 166.785 91.8796 167.237 92.4811C167.688 93.0826 167.086 93.3833 166.785 93.6841C165.28 94.8871 163.775 96.0901 162.269 97.1427C155.947 101.804 149.324 106.015 142.249 109.624C141.948 109.774 141.647 110.075 141.346 110.225C141.195 110.376 140.894 110.376 140.744 110.526C131.712 115.037 122.53 118.797 112.896 121.804C103.714 124.662 94.3812 126.767 84.8979 127.97C76.6188 128.872 68.3398 129.173 60.0607 128.571C51.9322 127.97 43.9542 126.466 36.2773 124.06C29.8046 121.955 23.6329 118.947 18.0634 115.188C12.9454 111.428 8.58011 107.068 5.26849 101.654C-1.50528 90.9773 -1.65581 80.1503 4.36532 69.1728C8.42958 61.8044 12.9454 55.3382 19.1171 49.7743L20.1708 48.7217C20.1708 48.7217 19.2676 50.5262 19.1171 50.9773C16.257 55.4886 15.2033 60.7518 14.1497 66.0149C13.9991 66.466 13.9991 67.0675 13.9991 67.5187C13.5475 69.0224 13.5475 70.5262 13.5475 72.03C13.9991 81.8044 18.3644 89.9247 25.4393 96.5412C28.9014 99.9999 32.8151 102.707 37.0299 105.113C50.4269 112.481 65.0282 115.338 80.2315 115.789C87.7579 115.94 95.1338 115.489 102.51 114.286C109.434 113.233 116.358 111.729 122.982 109.624C123.132 109.624 123.283 109.474 123.433 109.474C127.347 108.421 131.411 107.218 135.174 105.714C135.325 105.714 135.626 105.714 135.776 105.564C145.711 102.105 155.345 97.8946 164.678 93.233C165.129 93.233 165.43 92.9322 165.732 92.7818Z" fill="#F7E9A0"/>
<path d="M74.2104 63.0076V66.3158" stroke="#24315E" stroke-width="2.9431" stroke-miterlimit="10" stroke-linecap="round"/>
<path d="M108.531 63.0076V66.3158" stroke="#24315E" stroke-width="2.9431" stroke-miterlimit="10" stroke-linecap="round"/>
<path d="M89.1016 69.5636L89.1098 69.5702L89.1183 69.5764C90.2559 70.4098 91.2308 70.9475 92.2629 70.9699C93.3033 70.9925 94.2812 70.4916 95.4281 69.5779C96.1894 69.0793 96.9399 69.1502 97.3206 69.5086C97.5458 69.7985 97.6322 70.0804 97.6086 70.3515C97.5842 70.6324 97.435 70.9765 97.0475 71.3666C95.6484 72.62 93.9652 73.1887 92.2531 73.3347C90.293 73.3298 88.7692 72.6345 87.5092 71.3757C87.1124 70.9793 86.9708 70.6397 86.9592 70.3731C86.9479 70.1156 87.054 69.8311 87.3587 69.5268C87.7468 69.1391 88.508 69.0892 89.1016 69.5636Z" fill="#24315E" stroke="#24315E"/>
</svg>

<?xml version="1.0" encoding="utf-8"?>
<!-- Generator: Adobe Illustrator 24.0.2, SVG Export Plug-In . SVG Version: 6.00 Build 0)  -->
<svg version="1.1" id="Layer_1" xmlns="http://www.w3.org/2000/svg" xmlns:xlink="http://www.w3.org/1999/xlink" x="0px" y="0px"
	 viewBox="0 0 214 208" style="enable-background:new 0 0 214 208;" xml:space="preserve">
<style type="text/css">
	.st0{fill:#24315E;}
	.st1{fill:#FFFFFF;}
	.st2{fill:#F76D6D;}
	.st3{fill:#F7E9A0;}
	.st4{fill:none;stroke:#24315E;stroke-width:2.9431;stroke-linecap:round;stroke-miterlimit:10;}
	.st5{fill:#24315E;stroke:#24315E;}
</style>
<ellipse class="st0" cx="91" cy="200" rx="40" ry="8"/>
<path class="st0" d="M213.8,71.3v0.6c-0.6,2.1-2.1,3.5-4.1,4.4c-2.7,1.4-5.4,2.7-8.3,3.9c-0.8,0.3-1.1,0.9-1.4,1.7
	c-2.3,6.3-4.4,12.6-6.6,18.9c-0.3,0.9-0.9,1.5-1.8,2c-1.1,0.5-2.1,0.9-3.5,1.5c0.6-6.3,1.4-12.3,2-18.5c-0.5,0.3-0.9,0.5-1.2,0.6
	c-4.5,2.1-9.2,3.6-14.1,4.1c-1.5,0.2-2.9-0.2-4.1-1.4c-2.3-2.3-4.5-4.5-6.8-6.9c1.2-0.9,2.3-1.4,3.6-0.8c2.3,0.9,4.5,1.5,6.8,2.3
	c0.6,0.3,1.2,0.2,1.8-0.2c3.2-1.5,6.3-3,9.5-4.5c-2.9-1.5-9-4.8-11-6.2c0-0.2,0-0.3,0-0.5c1.4-0.6,2.9-1.4,4.2-2
	c0.2-0.2,0.5,0,0.8,0c3.5,1.2,10.1,3.3,13.8,4.7c3.5-1.7,6.8-3.3,10.2-5c2.4-1.2,4.8-1.2,7.4-0.8C212.2,69.8,213.1,70.2,213.8,71.3z
	"/>
<circle class="st1" cx="90.5" cy="71.5" r="37.5"/>
<path class="st2" d="M90.6,0c-40,0-72.6,32.5-72.6,72.5c0,2.3,0.2,4.5,0.5,6.9c2.1,4.7,5.3,8.9,9.2,12.6c3.5,3.5,7.4,6.2,11.6,8.6
	c13.4,7.4,28,10.2,43.2,10.7c7.5,0.2,14.9-0.3,22.3-1.4c6.9-1.1,13.8-2.6,20.5-4.7c0.2,0,0.3-0.2,0.6-0.2c3.9-1.1,8-2.3,11.7-3.8
	c0.2,0,0.5,0,0.6-0.1c7.5-2.6,14.9-5.7,22.1-9c1.8-6.9,2.9-13.5,2.9-19.8C163.2,32.5,130.7,0,90.6,0z M90.6,108.9
	c-20.2,0-36.4-16.4-36.4-36.4c0-20.2,16.4-36.4,36.4-36.4c20.2,0,36.4,16.4,36.4,36.4S110.8,108.9,90.6,108.9z M142.1,114.1
	c-0.3,0.2-0.6,0.5-0.9,0.6c-0.2,0.2-0.5,0.2-0.6,0.3c-9,4.5-18.2,8.3-27.8,11.3c-9.2,2.9-18.5,5-28,6.2c-8.3,0.9-16.6,1.2-24.8,0.6
	c-8-0.6-16-2-23.5-4.5c19.3,35.5,47.6,67.2,49.4,69.3c2.6,2.9,7.1,2.9,9.8,0c2.1-2.4,42.9-48.1,60.1-91.7
	C151.3,109,146.8,111.7,142.1,114.1z"/>
<path class="st3" d="M165.7,92.8c0.2,0,0.2,0,0.3-0.2c0.5-0.2,0.8-0.8,1.2-0.2c0.5,0.6-0.2,0.9-0.5,1.2c-1.5,1.2-3,2.4-4.5,3.5
	c-6.3,4.7-12.9,8.9-20,12.5c-0.3,0.2-0.6,0.5-0.9,0.6c-0.2,0.2-0.5,0.2-0.6,0.3c-9,4.5-18.2,8.3-27.8,11.3c-9.2,2.9-18.5,5-28,6.2
	c-8.3,0.9-16.6,1.2-24.8,0.6c-8.1-0.6-16.1-2.1-23.8-4.5c-6.5-2.1-12.6-5.1-18.2-8.9c-5.1-3.8-9.5-8.1-12.8-13.5
	C-1.5,91-1.7,80.2,4.4,69.2c4.1-7.4,8.6-13.8,14.8-19.4l1.1-1.1c0,0-0.9,1.8-1.1,2.3c-2.9,4.5-3.9,9.8-5,15C14,66.5,14,67.1,14,67.5
	c-0.5,1.5-0.5,3-0.5,4.5c0.5,9.8,4.8,17.9,11.9,24.5c3.5,3.5,7.4,6.2,11.6,8.6c13.4,7.4,28,10.2,43.2,10.7
	c7.5,0.2,14.9-0.3,22.3-1.5c6.9-1.1,13.8-2.6,20.5-4.7c0.2,0,0.3-0.2,0.5-0.2c3.9-1.1,8-2.3,11.7-3.8c0.2,0,0.5,0,0.6-0.1
	c9.9-3.5,19.6-7.7,28.9-12.3C165.1,93.2,165.4,92.9,165.7,92.8z"/>
<path class="st4" d="M74.2,63v3.3"/>
<path class="st4" d="M108.5,63v3.3"/>
<path class="st5" d="M89.1,69.6L89.1,69.6L89.1,69.6c1.2,0.8,2.1,1.4,3.2,1.4c1,0,2-0.5,3.2-1.4c0.8-0.5,1.5-0.4,1.9-0.1
	c0.2,0.3,0.3,0.6,0.3,0.8c0,0.3-0.2,0.6-0.6,1c-1.4,1.3-3.1,1.8-4.8,2c-2,0-3.5-0.7-4.7-2c-0.4-0.4-0.5-0.7-0.6-1
	c0-0.3,0.1-0.5,0.4-0.8C87.7,69.1,88.5,69.1,89.1,69.6z"/>
</svg>
